X:1
T:Title
%%score { ( 1 3 5 ) | ( 2 4 ) }
L:1/8
M:4/4
K:Eb
V:1 treble nm="Grand Piano"
V:3 treble 
V:5 treble 
V:2 bass 
V:4 bass 
V:1
 z4 z z/[Q:1/4=100] G/ G>G | E>E F>G A>G F>E | D6[K:bass] z2 | D>D E>F G>F E>D | %4
[M:11/16] C/-C/-C/-C/-C/-C/-C/-C-<C |[M:5/16] G<GG/ |[M:4/4] E>E F>G A>G F>E | D6[K:bass] z2 | %8
 D>D E>F G>F E>D |[M:11/16] C/-C/-C/-C/-C/-C/-C/-C-<C |[M:5/16] E<EE/ |[M:4/4] z4 F4- | F2 z2 z4 | %13
 z4 z z/ c/ c>c | e>e d>c =B2- [EB-]2 | B>=B B>B [Ge]2 d>d | c3 A G3 F | %17
[M:11/16] G/-G/-G/-G/-G/-G/-G/-G-<G |] %18
V:2
 z4 z2 =B,,2 | [C,G,C]4 F,4 | [D,G,=B,]4 z z/[K:treble] F/ F>F | [D,G,=B,]4 G,4 | %4
[M:11/16] [C,G,]/-[C,G,]/-[C,G,]/-[C,G,]/-[C,G,]/-[C,G,]/-[C,G,]/-[C,G,]-<[C,G,]- | %5
[M:5/16] [C,G,]/-[=B,,C,G,]-<[B,,C,-G,-] |[M:4/4] [C,G,C]4 F,4 | [D,G,=B,]4 z z/[K:treble] F/ F>F | %8
 [D,G,=B,]4 G,4 | %9
[M:11/16] [C,E,G,]/-[C,E,G,]/-[C,E,G,]/-[C,E,G,]/-[C,E,G,]/-[C,E,G,]/-[C,E,G,]/-[C,E,G,]-<[C,E,G,]- | %10
[M:5/16] [C,E,G,]/-[C,E,G,]-<[C,E,G,]- |[M:4/4] [C,E,G,]4 [F,A,]4 | [G,,D,F,]8 | [C,E,G,]4 F,4 | %14
 [E,G,C]4 G,4- | [G,,G,]4 z z/[K:treble] e/[K:bass] =B,,2 | [C,G,]4 [D,F,=B,]4 | %17
[M:11/16] [C,E,G,]/-[C,E,G,]/-[C,E,G,]/-[C,E,G,]/-[C,E,G,]/-[C,E,G,]/-[C,E,G,]/-[C,E,G,]-<[C,E,G,] |] %18
V:3
 x8 | x8 | z4[K:bass] G,,4 | x8 |[M:11/16] x11/2 |[M:5/16] x5/2 |[M:4/4] x8 | z4[K:bass] G,,4 | %8
 x8 |[M:11/16] x11/2 |[M:5/16] x5/2 |[M:4/4] C>C D>E z4 | z z/ F/ F>F D>D E>F | G6 z2 | z4 F2 z2 | %15
 D4 z2 F2 | x8 |[M:11/16] x11/2 |] %18
V:4
 x8 | x8 | x11/2[K:treble] x5/2 | x8 |[M:11/16] E,/-E,/-E,/-E,/-E,/-E,/-E,/-E,-<E, |[M:5/16] x5/2 | %6
[M:4/4] x8 | x11/2[K:treble] x5/2 | x8 |[M:11/16] x11/2 |[M:5/16] x5/2 |[M:4/4] x8 | x8 | x8 | %14
 z4 D,4 | z4 =A,,2[K:treble][K:bass] z2 | x8 |[M:11/16] x11/2 |] %18
V:5
 x8 | x8 | x4[K:bass] x4 | x8 |[M:11/16] x11/2 |[M:5/16] x5/2 |[M:4/4] x8 | x4[K:bass] x4 | x8 | %9
[M:11/16] x11/2 |[M:5/16] x5/2 |[M:4/4] x8 | =B,4 z4 | z4 A,4 | x8 | x8 | x8 |[M:11/16] x11/2 |] %18

